src/objects/clothing/1F460.svg

<?xml version="1.0" encoding="UTF-8"?>
<svg id="emoji" xmlns="http://www.w3.org/2000/svg" viewBox="0 0 72 72">
  <g id="grid">
    <path d="m68,4v64H4V4h64M72,0H0v72h72V0Z" fill="#b3b3b3"/>
    <path d="m12.923,10.9583h46.1539c1.0621,0,1.9231.861,1.9231,1.9231h0v46.1538c0,1.0621-.861,1.9231-1.9231,1.9231H12.9231c-1.0621,0-1.9231-.861-1.9231-1.9231h0V12.8813c0-1.062.861-1.923,1.923-1.923h0Z" fill="none" stroke="#00a5ff" stroke-miterlimit="10" stroke-width=".1"/>
    <rect x="16" y="4" width="40" height="64" rx="2.2537" ry="2.2537" fill="none" stroke="#00a5ff" stroke-miterlimit="10" stroke-width=".1"/>
    <rect x="4" y="16" width="64" height="40" rx="2.2537" ry="2.2537" fill="none" stroke="#00a5ff" stroke-miterlimit="10" stroke-width=".1"/>
    <circle cx="36" cy="36" r="29" fill="none" stroke="#00a5ff" stroke-miterlimit="10" stroke-width=".1"/>
  </g>
  <g id="color">
    <path d="m25.5011,34.5613c2.9156,2.3721,5.4581,5.3848,6.7637,9.1491,4.3333,12.4937,1.0296,12.7289,4.3333,17.3456,3.9794,5.5609,40.7244,5.1768,23.375-7.0795,0,0-12.2541,2.9795-16.9395-1.3551,0,0-5.428-17.9558-26.1409-38.379,0,0-4.5005,2.3277-6.2424,8.0451,0,0-1.1042,1.8496.5599,3.8163,1.5566,1.8397,14.2909,8.4575,14.2909,8.4575Z" fill="#d22f27"/>
    <path d="m25.1077,35.453c2.9156,2.3721,5.8515,4.4931,7.1571,8.2574,4.3333,12.4937,1.0296,12.7289,4.3333,17.3456,3.7635,5.2592,36.8343,5.201,25.7347-5.1888-1.2857-1.2035-3.0747-1.6967-4.8131-1.4148-2.9056.4711-7.8134.9701-11.482-.1862-1.674-.5276-3.0082-1.79-3.6383-3.4282-1.7731-4.6093-7.5973-17.608-21.5715-32.5555-2.5696-2.7485-5.8837-2.4176-7.8364.7986-.041.0676-.0817.1359-.122.2051-.9074,1.5579-2.2426,3.4668-1.5357,5.1254.0374.0878.0751.1755.1129.2627.5351,1.2342,13.6611,10.7787,13.6611,10.7787Z" fill="#d22f27"/>
    <path d="m19.962,33.0858l-2,27.8725h-3.8393v-28.8725l-2.9125-5.982s6.6505,3.8112,10.5259,6.9115l-1.7741.0705Z" fill="#3f3f3f"/>
  </g>
  <g id="line">
    <path d="m19.962,33.0858l-2,27.8725h-3.8393v-28.8725l-2.9125-5.982s6.6505,3.8112,10.5259,6.9115l-1.7741.0705Z" fill="none" stroke="#000" stroke-linecap="round" stroke-linejoin="round" stroke-width="2"/>
    <path d="m25.5011,34.5613c2.9156,2.3721,5.4581,5.3848,6.7637,9.1491,4.3333,12.4937,1.0296,12.7289,4.3333,17.3456,3.9794,5.5609,40.7244,5.1768,23.375-7.0795,0,0-12.2541,2.9795-16.9395-1.3551,0,0-5.428-17.9558-26.1409-38.379,0,0-4.5005,2.3277-6.2424,8.0451" fill="none" stroke="#000" stroke-linecap="round" stroke-linejoin="round" stroke-width="2"/>
    <path d="m25.5011,34.5613c2.9156,2.3721,5.4581,5.3848,6.7637,9.1491,4.3333,12.4937,1.0296,12.7289,4.3333,17.3456,3.9794,5.5609,40.7244,5.1768,23.375-7.0795,0,0-12.2541,2.9795-16.9395-1.3551,0,0-5.428-17.9558-26.1409-38.379,0,0-4.5005,2.3277-6.2424,8.0451" fill="none" stroke="#000" stroke-linecap="round" stroke-linejoin="round" stroke-width="2"/>
  </g>
</svg>

<svg id="emoji" viewBox="0 0 72 72" xmlns="http://www.w3.org/2000/svg">
  <g id="grid">
    <path fill="#b3b3b3" d="M68,4V68H4V4H68m4-4H0V72H72V0Z"/>
    <path fill="none" stroke="#00a5ff" stroke-miterlimit="10" stroke-width="0.1" d="M12.923,10.9583H59.0769A1.9231,1.9231,0,0,1,61,12.8814V59.0352a1.9231,1.9231,0,0,1-1.9231,1.9231H12.9231A1.9231,1.9231,0,0,1,11,59.0352V12.8813A1.923,1.923,0,0,1,12.923,10.9583Z"/>
    <rect x="16" y="4" rx="2.2537" width="40" height="64" fill="none" stroke="#00a5ff" stroke-miterlimit="10" stroke-width="0.1"/>
    <rect x="16" y="4" rx="2.2537" width="40" height="64" transform="translate(72) rotate(90)" fill="none" stroke="#00a5ff" stroke-miterlimit="10" stroke-width="0.1"/>
    <circle cx="36" cy="36" r="29" fill="none" stroke="#00a5ff" stroke-miterlimit="10" stroke-width="0.1"/>
  </g>
  <g id="color">
    <path fill="#D22F27" stroke="none" d="M25.5011,34.5613c2.9156,2.3721,5.4581,5.3848,6.7637,9.1491c4.3333,12.4937,1.0296,12.7289,4.3333,17.3456 c3.9794,5.5609,40.7244,5.1768,23.375-7.0795c0,0-12.2541,2.9795-16.9395-1.3551c0,0-5.428-17.9558-26.1409-38.379 c0,0-4.5005,2.3277-6.2424,8.0451c0,0,0.5599,2.0029,0.5599,4.5792S25.5011,34.5613,25.5011,34.5613z"/>
    <path fill="#D22F27" stroke="none" d="M25.1077,35.453c2.9156,2.3721,5.8515,4.4931,7.1571,8.2574c4.3333,12.4937,1.0296,12.7289,4.3333,17.3456 c3.9794,5.5609,40.7244,5.1768,23.375-7.0795c0,0-12.2541,2.9795-16.9395-1.3551c0,0-5.428-17.9558-26.1409-38.379 c0,0-5.5038,2.1333-7.2458,7.8506c0,0-0.6444,2.1297-0.1093,3.3639S25.1077,35.453,25.1077,35.453z"/>
    <path fill="#3F3F3F" stroke="none" stroke-linecap="round" stroke-linejoin="round" stroke-miterlimit="10" stroke-width="2" d="M19.962,33.0858l-2,27.8725h-3.8393V32.0858l-2.9125-5.982c0,0,6.6505,3.8112,10.5259,6.9115L19.962,33.0858z"/>
  </g>
  <g id="hair"/>
  <g id="skin"/>
  <g id="skin-shadow"/>
  <g id="line">
    <path fill="none" stroke="#000000" stroke-linecap="round" stroke-linejoin="round" stroke-miterlimit="10" stroke-width="2" d="M19.962,33.0858l-2,27.8725h-3.8393V32.0858l-2.9125-5.982c0,0,6.6505,3.8112,10.5259,6.9115L19.962,33.0858z"/>
    <path fill="none" stroke="#000000" stroke-linecap="round" stroke-linejoin="round" stroke-miterlimit="10" stroke-width="2" d="M25.5011,34.5613c2.9156,2.3721,5.4581,5.3848,6.7637,9.1491c4.3333,12.4937,1.0296,12.7289,4.3333,17.3456 c3.9794,5.5609,40.7244,5.1768,23.375-7.0795c0,0-12.2541,2.9795-16.9395-1.3551c0,0-5.428-17.9558-26.1409-38.379 c0,0-4.5005,2.3277-6.2424,8.0451"/>
    <path fill="none" stroke="#000000" stroke-linecap="round" stroke-linejoin="round" stroke-miterlimit="10" stroke-width="2" d="M25.5011,34.5613c2.9156,2.3721,5.4581,5.3848,6.7637,9.1491c4.3333,12.4937,1.0296,12.7289,4.3333,17.3456 c3.9794,5.5609,40.7244,5.1768,23.375-7.0795c0,0-12.2541,2.9795-16.9395-1.3551c0,0-5.428-17.9558-26.1409-38.379 c0,0-4.5005,2.3277-6.2424,8.0451"/>
  </g>
</svg>
